X:1
T:Title
%%score { ( 1 3 ) | ( 2 4 ) }
L:1/8
Q:1/4=100
M:4/4
K:Bb
V:1 treble nm="Grand Piano"
V:3 treble 
V:2 bass 
V:4 bass 
V:1
 [DF]>[DF] [_D=E]>[=DF] [_EG]>[DF] [B,D]>[DF] | [DB]2 [EB]2 [DB]4 | %2
w: Herbert~J.~Lacey * * * * * * *||
 G>G G>[FA] [GB]>[GB] [FA]>[EG] | [DF]2 [B,D]2 [DF]4 | %4
w: ||
 [DF]>[DF] [_D=E]>[=DF] [_EG]>[DF] [B,D]>[DF] | [DB]2 [Fd]2 [Ge]4 | d3 F B2 d2 | c4 [DB]4 | %8
w: ||||
 [Fd]3 [Ec] z2 _A,2 | z4 G4 | A>A A>B c4 | [DB]>[DB] [DB]>c d4 | [Fd]3 [Ec] z2 _A,2 | %13
w: |||||
[M:5/4] c3 [Fd] [Ge]6 |[M:4/4] d3 F B2 d2 | c4 [DB]4 |] %16
w: |||
V:2
 [B,,B,]>[B,,B,] [B,,B,]>[B,,B,] [B,,B,]>[B,,B,] [B,,F,]>[B,,B,] | [B,,F,]2 [E,G,]2 [B,,B,]4 | %2
 [E,B,E]>[E,B,E] [E,B,E]>[E,B,] [E,E]>[E,E] [E,B,]>[E,B,] | [B,,B,]2 [B,,F,]2 [B,,B,]4 | %4
 [B,,B,]>[B,,B,] [B,,B,]>[B,,B,] [B,,B,]>[B,,B,] [B,,F,]>[B,,B,] | [B,,B,]2 [B,,B,]2 [E,B,]4 | %6
 [F,B,F]3 [F,B,D] [F,B,D]2 [F,B,F]2 | [F,A,E]4 [B,,B,]4 | [B,,B,]3 [B,,B,] F,2 z2 | z4 B,2 z2 | %10
 [F,CE]>[F,CE] [F,CE]>[F,B,D] [F,A,E]4 | [B,,B,]>[B,,B,] [B,,B,]>[K:treble][F,A,F] [B,F]4 | %12
 z4 F,2 z2 |[M:5/4] [E,G,E]3 [E,G,] [C,G,]6 |[M:4/4] [F,B,F]3 [F,B,D] [F,B,D]2 [F,B,F]2 | %15
 [F,A,E]4 [B,,B,]4 |] %16
V:3
 x8 | x8 | x8 | x8 | x8 | x8 | x8 | x8 | z4 [DB]4 | B3 A z2 C2 | x8 | x8 | z4 [DB]4 |[M:5/4] x10 | %14
[M:4/4] x8 | x8 |] %16
V:4
 x8 | x8 | x8 | x8 | x8 | x8 | x8 | x8 | z4 B,,4 | [E,G,E]3 [E,A,E] [E,E]4 | x8 | %11
 x7/2[K:treble] x9/2 | [B,,B,]3 [B,,B,] B,,4 |[M:5/4] x10 |[M:4/4] x8 | x8 |] %16

